X:1
T: Belfast Linen
C:
R:Jig
Q:180
K:A
M:6/8
L:1/16
|:d2|c2e2e2 e4a2|f2a2f2 e2c2A2|c2e2e2 e4a2|f2e2c2 B6|
c2e2e2 e4a2|f2a2f2 e2c2A2|E2A2A2 F2A2A2|E2A2A2 A4:|
|:E2|E2C2E2 A2B2c2|B2A2B2 c2d2e2|f2g2a2 e2d2c2|B2c2A2 G2F2E2|
E2C2E2 A2B2c2|B2A2B2 c2d2e2|f2g2a2 e2d2c2|B2F2G2 A4:|
|:e2|e2f2g2 a2g2f2|e2f2g2 a4E2|E2F2G2 A2G2F2|E2F2G2 A4e2|
f2a2f2 e2c2e2|f2a2f2 e2c2A2|E2A2A2 F2A2A2|E2A2A2 A4:|
